!!!COM: Gaspar van Weerbeke
!!!CDT: ~1450-~1517
!!!OTL: Virgo Maria, non est tibi similis
!!!AGN: Motet
!!!SCT: Gas0405
!!!SCA: Gas0405
!!!voices: 4
**kern	**text	**kern	**text	**kern	**text	**kern	**text
*part4	*part4	*part3	*part3	*part2	*part2	*part1	*part1
*staff4	*staff4	*staff3	*staff3	*staff2	*staff2	*staff1	*staff1
*I"Bassus	*	*I"Tenor	*	*I"Altus	*	*I"Superius	*
*I'B	*	*I'T	*	*I'A	*	*I'S	*
*clefF4	*	*clefGv2	*	*clefGv2	*	*clefG2	*
*k[]	*	*k[]	*	*k[]	*	*k[]	*
*C:	*	*C:	*	*C:	*	*C:	*
*M2/2	*	*M2/2	*	*M2/2	*	*M2/2	*
*met(C|)	*	*met(C|)	*	*met(C|)	*	*met(C|)	*
=1	=1	=1	=1	=1	=1	=1	=1
[1E	Vir-	[1E	Vir-	[1B	Vir-	[1e	Vir-
=2	=2	=2	=2	=2	=2	=2	=2
1E]	.	1E]	.	1B]	.	1e]	.
=3	=3	=3	=3	=3	=3	=3	=3
2C	-go	2G	-go	2c	-go	2e	-go
2E	Ma-	2G	Ma-	4.B	Ma-	2e	Ma-
.	.	.	.	8c	.	.	.
=4	=4	=4	=4	=4	=4	=4	=4
1D	-ri-	2.A	-ri-	1d	-ri-	2.f	-ri-
.	.	4B	.	.	.	8eL	.
.	.	.	.	.	.	8dJ	.
=5	=5	=5	=5	=5	=5	=5	=5
[1C	-a,	[1c	-a,	1G	-a,	[1e	-a,
=6	=6	=6	=6	=6	=6	=6	=6
1C]	.	1c]	.	2.g	non	2e]	.
.	.	.	.	.	.	[2g	non
.	.	.	.	[4e	est	.	.
!!LO:LB:g=original
=7	=7	=7	=7	=7	=7	=7	=7
2E	non	2c	non	8e]L	.	2g]	.
.	.	.	.	8dJ	.	.	.
.	.	.	.	8cL	ti-	.	.
.	.	.	.	8BJ	.	.	.
2F	est	2c	est	2A	-bi	2a	est
=8	=8	=8	=8	=8	=8	=8	=8
2D	ti-	2d	ti-	4r	.	2b	ti-
.	.	.	.	4F	si-	.	.
4C	-bi	4e	-bi	4E	.	4cc	-bi
[4BB-X	si-	[4f	si-	[4D	.	[4dd	si-
=9	=9	=9	=9	=9	=9	=9	=9
4BB-]	.	4f]	.	4D]	.	4dd]	.
4C	.	4e	.	2E	-mi-	8ccL	.
.	.	.	.	.	.	8bJ	.
2AA	.	2c	.	.	.	[2cc	.
.	.	.	.	8F#iL	.	.	.
.	.	.	.	8EJ	.	.	.
=10	=10	=10	=10	=10	=10	=10	=10
1GG	-mi-	1d	-mi-	1G	-lis	2cc]	.
.	.	.	.	.	.	2b	-mi-
=11	=11	=11	=11	=11	=11	=11	=11
1C	-lis	1c	-lis	4.E	na-	1cc	-lis
.	.	.	.	8F	.	.	.
.	.	.	.	4G	.	.	.
.	.	.	.	[4A	.	.	.
=12	=12	=12	=12	=12	=12	=12	=12
1r	.	1c	na-	8A]L	.	2r	.
.	.	.	.	8BJ	.	.	.
.	.	.	.	4.c	.	.	.
.	.	.	.	.	.	2cc	na-
.	.	.	.	8d	.	.	.
.	.	.	.	[4e	.	.	.
!!LO:LB:g=original
=13	=13	=13	=13	=13	=13	=13	=13
1r	.	2A	-ta	8e]L	.	2cc	-ta
.	.	.	.	8fJ	.	.	.
.	.	.	.	2g	.	.	.
.	.	2A	in	.	.	2cc	in
.	.	.	.	4f	.	.	.
=14	=14	=14	=14	=14	=14	=14	=14
2G	na-	4G	mun-	2g	-ta	2b	mun-
.	.	4B	.	.	.	.	.
4A	-ta	4c	.	4f	in	4a	.
[4G	in	[4d	.	[4g	mun-	[4b	.
=15	=15	=15	=15	=15	=15	=15	=15
8G]L	.	8d]L	.	4g]	.	8b]L	.
8FJ	.	8AJ	.	.	.	8aJ	.
4A	mun-	4c	.	2.e	.	2a	.
2E	.	2B	.	.	.	.	.
.	.	.	.	.	.	4g#i	.
=16	=16	=16	=16	=16	=16	=16	=16
1AA	-do	1A	-do	4.c	-do,	1a	-do
.	.	.	.	8d	.	.	.
.	.	.	.	8eL	.	.	.
.	.	.	.	8fJ	.	.	.
.	.	.	.	[4e	.	.	.
=17	=17	=17	=17	=17	=17	=17	=17
2A	in-	1r	.	4e]	.	1r	.
.	.	.	.	8dL	.	.	.
.	.	.	.	8cJ	.	.	.
4G	.	.	.	4B	in	.	.
4F	.	.	.	[4d	mun-	.	.
=18	=18	=18	=18	=18	=18	=18	=18
4G	.	1r	.	4d]	.	1r	.
4E	.	.	.	2c	.	.	.
2D	-ter	.	.	.	.	.	.
.	.	.	.	4B	.	.	.
=19	=19	=19	=19	=19	=19	=19	=19
[1C	o-	1r	.	1c	-do	2r	.
.	.	.	.	.	.	2e	in-
!!LO:LB:g=original
=20	=20	=20	=20	=20	=20	=20	=20
1C]	.	2r	.	4.c	in-	2g	-ter
.	.	.	.	8d	.	.	.
.	.	2E	in-	4.e	-ter	2g	o-
.	.	.	.	8d	.	.	.
=21	=21	=21	=21	=21	=21	=21	=21
[1C	-mnes	2G	-ter	4c	o-	1e	-mnes
.	.	.	.	8BL	.	.	.
.	.	.	.	8AJ	.	.	.
.	.	2G	o-	4G	-mnes	.	.
.	.	.	.	[4c	mu-	.	.
=22	=22	=22	=22	=22	=22	=22	=22
1C]	.	1E	-mnes	8c]	.	2r	.
.	.	.	.	8dL	.	.	.
.	.	.	.	8e	.	.	.
.	.	.	.	8fJ	.	.	.
*	*	*	*	*	*edit	*	*
.	.	.	.	8gL	-li-	2g	mu-
.	.	.	.	8f	.	.	.
.	.	.	.	8e	.	.	.
.	.	.	.	8dJ	.	.	.
=23	=23	=23	=23	=23	=23	=23	=23
2F	mu-	2r	.	2c	-e-	2a	-li-
8EL	-li-	2G	mu-	2e	-res,	4g	.
8D	.	.	.	.	.	.	.
8C	.	.	.	.	.	[4e	.
8BBJ	.	.	.	.	.	.	.
=24	=24	=24	=24	=24	=24	=24	=24
2AA	.	2A	-li-	4r	.	4e]	.
*	*	*	*	*	*Xedit	*	*
.	.	.	.	4f	mu-	8dL	.
.	.	.	.	.	.	8cJ	.
4E	.	4G	.	2e	-li-	4.B	.
4AA	.	[4E	.	.	.	.	.
.	.	.	.	.	.	8c	.
=25	=25	=25	=25	=25	=25	=25	=25
2C	-e-	4E]	.	2c	-e-	4d	.
.	.	4G	.	.	.	2e	-e-
2D	-res,	2F	-e-	2A	-res,	.	.
.	.	.	.	.	.	4d	.
=26	=26	=26	=26	=26	=26	=26	=26
2r	.	1E	-res,	1r	.	2e	-res,
2AA	flo-	.	.	.	.	2r	.
!!LO:PB:g=original
=27	=27	=27	=27	=27	=27	=27	=27
4GG	-rens	2r	.	1r	.	1r	.
4GG	ut	.	.	.	.	.	.
2C	ro-	2A	flo-	.	.	.	.
=28	=28	=28	=28	=28	=28	=28	=28
2BB	.	4G	-rens	1r	.	1r	.
.	.	4G	ut	.	.	.	.
4AA	.	2c	ro-	.	.	.	.
[4E	.	.	.	.	.	.	.
=29	=29	=29	=29	=29	=29	=29	=29
4E]	.	2B	.	1r	.	1r	.
4D	.	.	.	.	.	.	.
4C	.	4A	.	.	.	.	.
[4D	.	[4B	.	.	.	.	.
=30	=30	=30	=30	=30	=30	=30	=30
8D]L	.	8B]L	.	1r	.	1r	.
8C	.	8A	.	.	.	.	.
8BB	.	8G#i	.	.	.	.	.
8AAJ	.	8F#iJ	.	.	.	.	.
2BB	.	2G#i	.	.	.	.	.
=31	=31	=31	=31	=31	=31	=31	=31
1AA	-sa,	1A	-sa,	2r	.	1r	.
.	.	.	.	2A	fra-	.	.
=32	=32	=32	=32	=32	=32	=32	=32
1r	.	1r	.	4G	-grans	2r	.
.	.	.	.	4G	sic-	.	.
.	.	.	.	2c	-ut	2a	fra-
=33	=33	=33	=33	=33	=33	=33	=33
2r	.	1r	.	2B	li-	4g	-grans
.	.	.	.	.	.	4g	sic-
2A	sic-	.	.	4A	.	2cc	-ut
.	.	.	.	[4e	.	.	.
!!LO:LB:g=original
=34	=34	=34	=34	=34	=34	=34	=34
2G	-ut	1r	.	4e]	.	2b	li-
.	.	.	.	4d	.	.	.
2A	li-	.	.	4c	.	4a	.
.	.	.	.	[4e	.	[4cc	.
=35	=35	=35	=35	=35	=35	=35	=35
4E	.	1r	.	8e]L	.	8cc]L	.
.	.	.	.	8dJ	.	8bJ	.
4A	.	.	.	4c	.	2a	.
2E	-li-	.	.	2B	-li-	.	.
.	.	.	.	.	.	4g#i	-li-
=36	=36	=36	=36	=36	=36	=36	=36
1AA	-um,	1E	in-	1A	-um,	1a	-um,
=37	=37	=37	=37	=37	=37	=37	=37
2AA	in-	2E	.	2c	in-	2a	in-
2AA	-ter-	2E	-ter-	2c	-ter-	2a	-ter-
=38	=38	=38	=38	=38	=38	=38	=38
1D	-ce-	1F	-ce-	2d	-ce-	1a	-ce-
.	.	.	.	4A	.	.	.
.	.	.	.	[4d	.	.	.
=39	=39	=39	=39	=39	=39	=39	=39
2D	-de	2D	-de	8d]L	.	2a	-de
.	.	.	.	8eJ	.	.	.
.	.	.	.	2f	-de	.	.
2F	pro	2D	pro-	.	.	2a	pro
.	.	.	.	8eL	pro	.	.
.	.	.	.	8dJ	.	.	.
=40	=40	=40	=40	=40	=40	=40	=40
1E	no-	1G	-no-	4c	no-	1g	no-
.	.	.	.	2d	.	.	.
.	.	.	.	4c#i	.	.	.
!!LO:LB:g=original
=41	=41	=41	=41	=41	=41	=41	=41
1D	-bis	1A	-bis	1d	-bis	1f	-bis
=42	=42	=42	=42	=42	=42	=42	=42
2AA	ad	2A	ad	2c	ad	2e	ad
4D	.	4F	.	4A	.	4d	.
[4C	Do-	[4G	Do-	[4c	Do-	[4e	Do-
=43	=43	=43	=43	=43	=43	=43	=43
4C]	.	4G]	.	4c]	.	4e]	.
4D	.	4F	.	2A	.	2d	.
2AA	-mi-	2E	-mi-	.	.	.	.
.	.	.	.	4A	-mi-	4c#i	-mi-
=44	=44	=44	=44	=44	=44	=44	=44
1A	-num	1D	-num	2F	-num	1d	-num
.	.	.	.	2A	.	.	.
=45	=45	=45	=45	=45	=45	=45	=45
1D	Je-	1A	Je-	2r	.	1f	Je-
.	.	.	.	2d	Je-	.	.
=46	=46	=46	=46	=46	=46	=46	=46
[1C	-sum	2c	.	2.G	-sum	2e	-sum
.	.	2G	-sum	.	.	[2g	Chri-
.	.	.	.	[4c	Chri-	.	.
=47	=47	=47	=47	=47	=47	=47	=47
1C]	.	2.E	Chri-	4c]	.	4g]	.
.	.	.	.	8BL	.	4f	.
.	.	.	.	8AJ	.	.	.
.	.	.	.	4G	.	[2e	.
.	.	4G	.	4c	.	.	.
!!LO:LB:g=original
=48	=48	=48	=48	=48	=48	=48	=48
1D	Chri-	1F	.	4B	.	2e]	.
.	.	.	.	2A	.	.	.
.	.	.	.	.	.	2d	.
.	.	.	.	8GL	.	.	.
.	.	.	.	8AJ	.	.	.
=49	=49	=49	=49	=49	=49	=49	=49
1G	-stum,	[1El	-stum.	1B	-stum,	[1el	-stum.
=50	=50	=50	=50	=50	=50	=50	=50
*	*edit	*	*	*	*edit	*	*
2.C	Chri-	1E_	.	2c	Chri-	1e_	.
.	.	.	.	2G	.	.	.
4BB	.	.	.	.	.	.	.
=51	=51	=51	=51	=51	=51	=51	=51
2AA	.	1E_	.	2A	.	1e_	.
2GG	.	.	.	2B	.	.	.
=52	=52	=52	=52	=52	=52	=52	=52
1AA	-stum.	1E_	.	2.c	-stum.	_1e_	.
.	.	.	.	8BL	.	.	.
.	.	.	.	8AJ	.	.	.
=53	=53	=53	=53	=53	=53	=53	=53
1El	.	1E]	.	1Bl	.	1e]	.
==	==	==	=	==	==	==	==
*-	*-	*-	*-	*-	*-	*-	*-
!!!system-decoration: [*]
!!!RDF**kern: j = editorial accidental, optional, paren up
!!!RDF**kern: i = editorial accidental
!!!RDF**kern: l = terminal breve
!!!PTL: Gaspar van Weerbeke: Collected Works. IV. Motets
!!!ISBN: 978-1-59551-500-1 / 1-59551-500-3
!!!PPR: American Institute of Musicology
!!!PC#: Corpus Mensurabilis Musicae 106/IV
!!!PDT: 2010
!!!PED: Pavanello, Agnese
!!!YEC: Copyright 2008, Pavanello, Agnese
!!!YEM: CC-BY-NC 4.0 (https://creativecommons.org/licenses/by-nc/4.0/legalcode)
!!!EED: Mair-Gruber, Roland
!!!EEV: 2021/08/04
